X:1
T:Title
%%score { ( 1 4 ) | ( 2 3 ) }
L:1/8
M:6/8
K:F
V:1 treble nm="Grand Piano"
V:4 treble 
V:2 bass 
V:3 bass 
V:1
 z3 z2[Q:1/4=87] [DF] | [DF]>[^CE][DF] [Dd]2 [DB] | [_EA]2 [EG] [DF]2 [DF] | G>^FG [Ed]2 [Ec] | %4
 c3 .F2 F | [DF]>[^CE][DF] [Dd]2 [DB] | [^CA]2 [CG] [F,DF]2 [DFB] | [CFA]2 [CFA] [Fc]2 [FA] | %8
[M:5/8] [EG]3 F z |[M:1/8] F |[M:3/4] F2 _e d2 c | B>c [Dd] [F,B,DF]2 F | G2 GB- B/A/G | %13
[M:5/8] d3 D z |[M:1/8] [^Fd] |[M:3/4] d2 d _e2 d |[M:7/8] [Ed]2 [Ec] B3 G |[M:3/4] F>E F B2 d | %18
[M:5/8] c3 [DB]2 |] %19
V:2
 z3 z2 [B,,B,] | [B,,B,]2 [B,,B,] [B,,F,]2 [B,,F,] | [B,,G,]2 [B,,A,] [B,,B,]2 [B,,B,] | %3
 [_E,B,_E]2 [E,B,E] [C,B,]2 [C,B,] | [F,A,F]3 .[F,A,]2 [F,A,_E] | %5
 [B,,B,]2 [B,,B,] [B,,F,]2 [B,,F,] | [B,,E,]2 [B,,E,] B,,2 B,, | z z/ _A/C, [C,A,]2 [C,C] | %8
[M:5/8] [C,B,]3 [F,A,] z |[M:1/8] z |[M:3/4] .F,,2 [F,A,_EF] [F,A,EF]2 [F,A,EF] | %11
 [B,,F,B,]2 [B,,F,B,] B,,2 F, | G,2 G,B,- B,/A,/G, |[M:5/8] D3 D, z |[M:1/8] [D,C] | %15
[M:3/4][K:treble] [G,=B,F]2 [G,B,F] [G,B,F]2 [G,B,F] | %16
[M:7/8][K:bass] [C,C]2 [C,G,] [E,G,^C]3 [E,B,C] |[M:3/4] [F,B,D]2 [F,B,D] [F,DF]2 [F,B,F] | %18
[M:5/8] [F,A,_E]3 [B,,B,]2 |] %19
V:3
 x6 | x6 | x6 | x6 | x6 | x6 | x6 | .C,3 z3 |[M:5/8] x5 |[M:1/8] x |[M:3/4] x6 | x6 | x6 | %13
[M:5/8] x5 |[M:1/8] x |[M:3/4][K:treble] x6 |[M:7/8][K:bass] x7 |[M:3/4] x6 |[M:5/8] x5 |] %19
V:4
 x6 | x6 | x6 | x6 | x6 | x6 | x6 | x6 |[M:5/8] x5 |[M:1/8] x |[M:3/4] x6 | D2 z2 z2 | x6 | %13
[M:5/8] x5 |[M:1/8] x |[M:3/4] x6 |[M:7/8] x7 |[M:3/4] x6 |[M:5/8] x5 |] %19

